icons/folder.svg

<svg xmlns="http://www.w3.org/2000/svg" viewBox="0 0 24 24" fill="currentColor">
  <path d="M3.75 4.2c0-.28578.16422-.45.45001-.45H12.3c.7315 0 1.446.45007 1.7147 1.0546l.0093.02101.7407 1.42439H3.75V4.2Zm-1.5 2.05V4.2c0-1.11422.83581-1.95 1.95001-1.95H12.3c1.2605 0 2.5379.74053 3.0753 1.9229l1.08 2.0771H17c2.6142 0 4.75 2.13579 4.75 4.75v6c0 2.6142-2.1358 4.75-4.75 4.75H7c-2.72646 0-4.75-2.1481-4.75-4.75V6.25Zm1.5 1.5V17c0 1.7981 1.37646 3.25 3.25 3.25h10c1.7858 0 3.25-1.4642 3.25-3.25v-6c0-1.78579-1.4642-3.25-3.25-3.25H3.75Z"/>
</svg>

<svg width="24" height="24" viewBox="0 0 24 24" fill="none" xmlns="http://www.w3.org/2000/svg">
<path fill-rule="evenodd" clip-rule="evenodd" d="M3.75 4.2C3.75 3.91422 3.91422 3.75 4.20001 3.75H12.3C13.0315 3.75 13.746 4.20007 14.0147 4.8046L14.024 4.82561L14.7647 6.25H3.75V4.2ZM2.25 6.25V4.2C2.25 3.08578 3.08581 2.25 4.20001 2.25H12.3C13.5605 2.25 14.8379 2.99053 15.3753 4.1729L16.4553 6.25H17C19.6142 6.25 21.75 8.38579 21.75 11V17C21.75 19.6142 19.6142 21.75 17 21.75H7C4.27354 21.75 2.25 19.6019 2.25 17V7.75V6.25ZM3.75 7.75V17C3.75 18.7981 5.12646 20.25 7 20.25H17C18.7858 20.25 20.25 18.7858 20.25 17V11C20.25 9.21421 18.7858 7.75 17 7.75H3.75Z" fill="black"/>
</svg>
